X:1
T: Captain Macduff's Delight
C:Robert Mackintosh
R:Reel
Q: 232
K:G
M:4/4
L:1/8
|:B|G2 BG FA Ac|BG cB A1/2A1/2A A2|G2 BG F1/2E1/2F1/2G1/2 Ac|BG EA FD DB|
G2 BG FA Ac|BG cB A1/2A1/2A A2|G2 BG F1/2E1/2F1/2G1/2 Ac|BG EA FD DB1/2c1/2|
dG Bd eA ce|dG BG AG Ec|dG Bd ce Ac|BG EA FD Dc|
dG Bd eA ce|dG BG AG Ec|dg Bg ca Ac|BG EA FD D:|
